X: 1
T: de Bones in de Barnyard
R: reel
Z: 2013 John Chambers <jc:trillian.mit.edu>
S: Handwritten MS from Paul Milde
M: 2/4
L: 1/16
K: G
|: D2G2 G2B2 | AGFA B2G2 | cBAB BAGB | AGFG [1,3 A2D2 :|[2,4 G4 :|
|: d2g2 efge | dcBA B2G2 | cBAc BAGB | AGAG [1,3 A2D2 :|[2,4 G4 :|
